X:477
T:Lassie Look Behind Ye
R:Reel
C:William Marshall
B:The Athole Collection
M:C|
L:1/8
K:D
B|ADFD EB,B,B|AD F/G/A d2 d>f|gfed eBBd|FD F/G/A d2d:|
|:f|dg f/g/a beef|dg f/g/a fdec|dBAF EFGA|FD F/G/A d2d:|

